images/user-icon.svg

<svg width="16" height="18" viewBox="0 0 16 18" fill="none" xmlns="http://www.w3.org/2000/svg">
<path d="M7.93183 9.69894C7.9513 9.69894 7.97078 9.69894 7.99415 9.69894C8.00194 9.69894 8.00973 9.69894 8.01752 9.69894C8.02921 9.69894 8.04479 9.69894 8.05648 9.69894C9.19779 9.6803 10.121 9.29637 10.8026 8.56205C12.3023 6.94432 12.053 4.17106 12.0258 3.90641C11.9284 1.91966 10.9468 0.969148 10.1365 0.525577C9.53278 0.19383 8.82774 0.01491 8.04089 0H8.01363C8.00973 0 8.00194 0 7.99805 0H7.97468C7.5423 0 6.69313 0.0670949 5.87902 0.510667C5.06102 0.954238 4.06383 1.90475 3.96645 3.90641C3.93918 4.17106 3.68988 6.94432 5.18956 8.56205C5.86734 9.29637 6.79051 9.6803 7.93183 9.69894ZM5.00648 3.9996C5.00648 3.98842 5.01038 3.97724 5.01038 3.96978C5.13892 1.29717 7.12161 1.01015 7.97078 1.01015H7.98636C7.99415 1.01015 8.00584 1.01015 8.01752 1.01015C9.06924 1.03252 10.8572 1.44254 10.9779 3.96978C10.9779 3.98096 10.9779 3.99215 10.9818 3.9996C10.9857 4.02569 11.2584 6.56039 10.0197 7.89483C9.52889 8.42413 8.87448 8.68506 8.01363 8.69251C8.00584 8.69251 8.00194 8.69251 7.99415 8.69251C7.98636 8.69251 7.98247 8.69251 7.97468 8.69251C7.11772 8.68506 6.45942 8.42413 5.97251 7.89483C4.73771 6.56784 5.00259 4.02197 5.00648 3.9996Z" fill="#949494"/>
<path d="M15.9989 14.2987C15.9989 14.295 15.9989 14.2912 15.9989 14.2875C15.9989 14.2577 15.995 14.2279 15.995 14.1943C15.9716 13.4563 15.921 11.7304 14.2305 11.1788C14.2188 11.175 14.2032 11.1713 14.1915 11.1676C12.4347 10.7389 10.974 9.76978 10.9584 9.7586C10.7208 9.59832 10.3936 9.65423 10.2261 9.88161C10.0586 10.109 10.1171 10.4221 10.3547 10.5824C10.4209 10.6271 11.9712 11.6596 13.911 12.1367C14.8186 12.4461 14.9199 13.3743 14.9472 14.2241C14.9472 14.2577 14.9472 14.2875 14.9511 14.3173C14.955 14.6528 14.9316 15.1709 14.8693 15.4691C14.2382 15.812 11.7648 16.9974 8.00193 16.9974C4.25469 16.9974 1.76561 15.8083 1.13069 15.4654C1.06836 15.1672 1.0411 14.6491 1.04889 14.3136C1.04889 14.2838 1.05278 14.254 1.05278 14.2204C1.08005 13.3705 1.18133 12.4424 2.08892 12.133C4.02876 11.6559 5.57908 10.6197 5.6453 10.5786C5.88291 10.4184 5.94134 10.1053 5.77384 9.87788C5.60635 9.6505 5.27914 9.59459 5.04153 9.75487C5.02595 9.76606 3.57302 10.7352 1.80846 11.1639C1.79288 11.1676 1.7812 11.1713 1.76951 11.175C0.0789655 11.7304 0.0283271 13.4563 0.00495551 14.1906C0.00495551 14.2241 0.00495542 14.254 0.00106015 14.2838C0.00106015 14.2875 0.00106015 14.2912 0.00106015 14.295C-0.00283511 14.4888 -0.00673029 15.484 0.199719 15.9835C0.238671 16.0804 0.308786 16.1624 0.402272 16.2183C0.51913 16.2929 3.31983 18.0001 8.00583 18.0001C12.6918 18.0001 15.4925 16.2892 15.6094 16.2183C15.699 16.1624 15.773 16.0804 15.8119 15.9835C16.0067 15.4878 16.0028 14.4925 15.9989 14.2987Z" fill="#949494"/>
</svg>

<svg width="16" height="18" fill="none" xmlns="http://www.w3.org/2000/svg"><path d="M7.932 9.699h.124c1.142-.019 2.065-.403 2.747-1.137 1.5-1.618 1.25-4.39 1.223-4.656-.098-1.986-1.08-2.937-1.89-3.38C9.534.194 8.829.015 8.041 0h-.066c-.433 0-1.282.067-2.096.51-.818.444-1.815 1.395-1.913 3.396-.027.265-.276 3.038 1.224 4.656.677.734 1.6 1.118 2.742 1.137zm-2.926-5.7c0-.01.004-.022.004-.03C5.14 1.298 7.122 1.01 7.97 1.01h.048c1.051.023 2.84.433 2.96 2.96 0 .011 0 .022.004.03.004.026.276 2.56-.962 3.895-.491.53-1.146.79-2.006.798h-.04c-.856-.008-1.515-.269-2.001-.798C4.738 6.568 5.003 4.022 5.006 4z" fill="#949494"/><path d="M15.999 14.299v-.011c0-.03-.004-.06-.004-.094-.023-.738-.074-2.464-1.764-3.015l-.04-.011c-1.756-.43-3.217-1.398-3.233-1.41a.54.54 0 00-.732.124.49.49 0 00.129.7c.066.045 1.616 1.078 3.556 1.555.908.31 1.009 1.237 1.036 2.087 0 .034 0 .063.004.093.004.336-.02.854-.082 1.152-.63.343-3.104 1.528-6.867 1.528-3.747 0-6.236-1.189-6.871-1.532-.063-.298-.09-.816-.082-1.151 0-.03.004-.06.004-.094.027-.85.128-1.778 1.036-2.087 1.94-.477 3.49-1.513 3.556-1.554a.489.489 0 00.129-.701.54.54 0 00-.732-.123c-.016.011-1.469.98-3.234 1.409l-.038.011C.079 11.73.028 13.456.005 14.191c0 .033 0 .063-.004.093v.011c-.004.194-.008 1.189.199 1.688.039.097.109.18.202.235C.52 16.293 3.32 18 8.006 18s7.486-1.71 7.603-1.782a.504.504 0 00.203-.235c.195-.495.19-1.49.187-1.684z" fill="#949494"/></svg>
